!!!Genre:	Freylekhs
!!!Mode:	Major
!!!Listening/dance:	dance
!!!:	*g:dor; *G:frey
!!!One_Mode:	no
**kern
*I"P1
*clefG2
*k[f#]
*G:
*M2/4
*>A
16dLL
16g
16aJJ
=1!|:
(32bLLL
32cc
32b
32ccJ
16b
16gJJ)
(32aLLL
32b
32a
32bJJ
8gJ)
=2
16bLL
16cc
16dd
16bJJ
(32aLLL
32b
32a
32bJJ
8gJ)
=3
16bLL
16cc
16dd
16eeJJ
16ffnLL
16ee
16dd
16cc#XJJ
=4
(8qee/
8dd)
8r
4gg^
=5
32bLLL
32cc
32b
32ccJ
16b
16gJJ
32aLLL
32b
32a
32bJJ
8gJ
=6
16bLL
16cc
16dd
16bJJ
32aLLL
32b
32a
32bJJ
8gJ
=7
16bLL
16cc
16dd
16eeJJ
(16qqdd/LL
16qqee/JJ
16ddLL)
16b
(16qqb/LL
16qqdd/JJ
16cc)
16aJJ
=8
4.g
16gLL
16aJJ
=9:|!
2g
*>bM
*-
